X:1
T: Mrs. Trotter (of Castlelaw's) Reel
C:
R:Jig
Q:180
K:F
M:6/8
L:1/16
C2|F6 F4f2|e2d2c2 d2e2f2|F6 c2A2F2|E2F2G2 G2E2C2|F6 F4f2|e2d2c2 d2e2f2|c2B2A2 B2A2G2|A2F2F2 F4C2|
F6 F4f2|e2d2c2 d2e2f2|F6 c2A2F2|E2F2G2 G2E2C2|F6 F4f2|e2d2c2 d2e2f2|c2B2A2 B2A2G2|A2F2F2 F4c2|
d2e2f2 e2d2c2|d2f2d2 c2A2F2|B2d2B2 A2c2A2|G2A2F2 E2D2C2|d2e2f2 e2d2c2|d2f2d2 c2A2F2|d2c2B2 A2B2G2|A2F2F2 F4c2|
d2e2f2 e2d2c2|d2f2d2 c2A2F2|B2g2B2 A2f2A2|G2A2F2 E2D2C2|D2F2D2 E2G2E2|F2A2F2 G2B2G2|A2f2c2 d2B2A2|G2F2E2 F4||
